app/style/graphics/spriteSheets/text/1000.svg

<?xml version="1.0" encoding="utf-8"?>
<!-- Generator: Adobe Illustrator 27.8.1, SVG Export Plug-In . SVG Version: 6.00 Build 0)  -->
<svg version="1.1" id="Calque_1" xmlns="http://www.w3.org/2000/svg" xmlns:xlink="http://www.w3.org/1999/xlink" x="0px" y="0px"
	 viewBox="0 0 24 16" style="enable-background:new 0 0 24 16;" xml:space="preserve">
<style type="text/css">
	.st0{display:none;fill:#FCB5FF;}
	.st1{display:none;fill-rule:evenodd;clip-rule:evenodd;fill:#FCB5FF;}
	.st2{fill:#FF0049;}
	.st3{font-family:'MobyBold';}
	.st4{font-size:8px;}
	.st5{letter-spacing:-1;}
</style>
<path class="st0" d="M4,5H3v1h1v4H3v1h3v-1H5V4H4V5z"/>
<path class="st1" d="M7,10V5h1v5H7z M10,10H8v1h2V10z M10,5H8V4h2V5z M10,5v5h1V5H10z"/>
<path class="st1" d="M12,10V5h1v5H12z M15,10h-2v1h2V10z M15,5h-2V4h2V5z M15,5v5h1V5H15z"/>
<path class="st1" d="M17,10V5h1v5H17z M20,10h-2v1h2V10z M20,5h-2V4h2V5z M20,5v5h1V5H20z"/>
<text transform="matrix(1 0 0 1 -1.0718 10.4629)" class="st2 st3 st4 st5">1000</text>
</svg>

<svg width="24" height="16" viewBox="0 0 24 16" fill="none" xmlns="http://www.w3.org/2000/svg">
<path d="M4 5H3V6H4V10H3V11H6V10H5V4H4V5Z" fill="#FCB5FF"/>
<path fill-rule="evenodd" clip-rule="evenodd" d="M7 10V5H8V10H7ZM10 10H8V11H10V10ZM10 5H8V4H10V5ZM10 5V10H11V5H10Z" fill="#FCB5FF"/>
<path fill-rule="evenodd" clip-rule="evenodd" d="M12 10V5H13V10H12ZM15 10H13V11H15V10ZM15 5H13V4H15V5ZM15 5V10H16V5H15Z" fill="#FCB5FF"/>
<path fill-rule="evenodd" clip-rule="evenodd" d="M17 10V5H18V10H17ZM20 10H18V11H20V10ZM20 5H18V4H20V5ZM20 5V10H21V5H20Z" fill="#FCB5FF"/>
</svg>
